X:1
T:Revolutionary Tea
M:6/8
L:1/8
K:G
 z4 z D| DGG GFG| ABA A2 B| cAAG-F G| A3- A2 D| DGG GFG|A-B A A2 A/2A/2|\
 ABA GFE| D3- D2 D| AGF FED|D-G B A2 A| ABc BdB| A3- A2 A/2A/2| BAG cBA|\
 dcB e2 e| dcB cBA| B3 e3| dBG D2 B/2A/2| G3- G2 z|
